Resources/Icons/login.svg

<svg version="1.1" xmlns="http://www.w3.org/2000/svg">
    <g id="Page-1" stroke="none" stroke-width="1" fill="none" fill-rule="evenodd" sketch:type="MSPage">
        <g id="key" sketch:type="MSLayerGroup" fill="#000000">
            <path d="M50.196625,0 C37.5972813,0 27.384125,10.2154375 27.384125,22.8125 C27.384125,25.7439063 27.9977813,28.5179062 29.0106563,31.0911562 L1.29575,58.8037813 C0.49503125,59.6067813 0,60.3687187 0,61.59375 L0,68.4375 C0,70.8784375 2.11928125,73 4.5625,73 L11.40625,73 C12.629,73 13.4023438,72.5095312 14.2030625,71.713375 L17.4766562,68.4375 L22.821625,68.4375 C25.340125,68.4375 27.384125,66.3935 27.384125,63.875 L27.384125,59.3125 L31.946625,59.3125 C34.465125,59.3125 36.509125,57.2685 36.509125,54.75 L36.509125,49.40275 L41.9134062,43.9939063 C44.4889375,45.0090625 47.2606562,45.625 50.196625,45.625 C62.7914063,45.625 73.009125,35.4095625 73.009125,22.8125 C73.009125,10.2154375 62.7914063,0 50.196625,0 L50.196625,0 Z M61.327643,20.930772 C58.7706814,17.3670722 55.6571643,14.2573904 52.0783304,11.6815792 C51.4966844,11.2595021 50.743966,11.1545532 50.0665194,11.391829 C46.8982592,12.5074815 44.7290616,14.6749045 43.6205126,17.8439052 C43.5361169,18.081181 43.4950596,18.3275828 43.4950596,18.5717031 C43.4950596,19.0257212 43.6364794,19.4751763 43.9101952,19.8561864 C46.4762807,23.4244493 49.5852358,26.5364125 53.1549458,29.1030977 C53.7388728,29.5228934 54.4870293,29.6301238 55.1644759,29.3951295 C58.337298,28.2863215 60.5064956,26.1143354 61.6196065,22.9430532 C61.7040022,22.7057774 61.7450596,22.4593756 61.7450596,22.2152554 C61.7427786,21.7612373 61.5990778,21.3117822 61.327643,20.930772 L61.327643,20.930772 Z"></path>
        </g>
    </g>
</svg>

<svg version="1.1" xmlns="http://www.w3.org/2000/svg"><path d="M50.197 0c-12.6 0-22.813 10.215-22.813 22.813 0 2.93.614 5.705 1.627 8.278L1.296 58.804C.495 59.607 0 60.369 0 61.594v6.843C0 70.879 2.12 73 4.563 73h6.843c1.223 0 1.996-.49 2.797-1.287l3.274-3.275h5.345a4.564 4.564 0 0 0 4.562-4.563v-4.563h4.563a4.564 4.564 0 0 0 4.562-4.562v-5.347l5.404-5.41c2.576 1.016 5.348 1.632 8.284 1.632 12.594 0 22.812-10.215 22.812-22.813C73.01 10.216 62.791 0 50.197 0zm11.13 20.93a40.399 40.399 0 0 0-9.249-9.248 2.192 2.192 0 0 0-2.011-.29c-3.169 1.115-5.338 3.283-6.446 6.452a2.2 2.2 0 0 0 .29 2.012 40.46 40.46 0 0 0 9.244 9.247c.584.42 1.332.527 2.01.292 3.172-1.109 5.341-3.28 6.455-6.452.084-.237.125-.484.125-.728a2.235 2.235 0 0 0-.417-1.284z" fill="#000" stroke="none" stroke-width="1" fill-rule="evenodd"/></svg>
